assets/fc/fc-data-recovery.svg

<svg xmlns="http://www.w3.org/2000/svg" width="100%" height="100%" viewBox="0 0 48 48"><g fill="#D1C4E9"><path d="M38 7H10c-1.1 0-2 .9-2 2v6c0 1.1.9 2 2 2h28c1.1 0 2-.9 2-2V9c0-1.1-.9-2-2-2zM38 19H10c-1.1 0-2 .9-2 2v6c0 1.1.9 2 2 2h28c1.1 0 2-.9 2-2v-6c0-1.1-.9-2-2-2zM38 31H10c-1.1 0-2 .9-2 2v6c0 1.1.9 2 2 2h28c1.1 0 2-.9 2-2v-6c0-1.1-.9-2-2-2z"/></g><g fill="#F44336"><path d="M35 28h6v20h-6z"/><path d="M28 35h20v6H28z"/></g></svg>

<svg xmlns="http://www.w3.org/2000/svg" width="100%" height="100%" viewBox="0 0 48 48"><g fill="#D1C4E9"><path d="M38 7H10C8.9 7 8 7.9 8 9v6c0 1.1.9 2 2 2h28c1.1 0 2-.9 2-2V9C40 7.9 39.1 7 38 7zM38 19H10c-1.1 0-2 .9-2 2v6c0 1.1.9 2 2 2h28c1.1 0 2-.9 2-2v-6C40 19.9 39.1 19 38 19zM38 31H10c-1.1 0-2 .9-2 2v6c0 1.1.9 2 2 2h28c1.1 0 2-.9 2-2v-6C40 31.9 39.1 31 38 31z"/></g><g fill="#F44336"><path d="M35 28H41V48H35z"/><path d="M28 35H48V41H28z"/></g></svg>
